!!!OTL: Auswandererlied (170e), S. 372
!!!id: T0345
**kern
*clefG2
*k[b-]
*F:
{8cc
=1
8cc
8b-
4.a
8cc
=2
8b-
8a
4.g}
=3
{8b-
=4
8a
8g
4.f
16a
16a
=5
8a
8f
4g}
4r
=6
{8c
8f
4f
8f
8a
=7
4a
8g
8a
8b-
8g
=8
4f}
4.r
==
*-
!!!minrhy: 16
!!!meters: 3/4 ]  ZZ[3
!!!cut1: Auswandererlied (170e), S. 372
!!!cut2: Melodie I
!!!reg: Luxemburg
!!!trd: Singendes Volk, Esch-Alzette, 1937 posth.
!!!rhy1: X_  X_X_X__.X_  X_X_X__.
!!!rhy2: X_  X_X_X__.XX  X_X_X__0__
!!!key: T0345  16  F 3/4 ]  ZZ[3
!!!mod: PENTATONIK DUR ?]  AMBITUS[8
!!!kad: 221
!!!akz: 54_33_-531_
!!!fot: 'a__b__c__
!!!for: 'a__b__c__
!!!fok: '\__\__^a_
!! PHRAS[VORWIEGEND AUFTAKTIG]
!!!fkt: Abschieds- und Wanderlieder, Heimatlieder
!!!bem: Heffingen, hhh Nikolaus Ewen, 10.6.1935
!! THILL, Mathias:
!! PR[3] 2K[12] 2G[6] 3K[3] 3G[0] 4A[3] 4Ü[0] 5A[0] 6K[6] 6G[6]
!! 7K[0] 7G[0] 8A[0] MEHR[0] SI[35] ABS[34] SR[18] SP[18]
!! ST[8] 2k[18] 2g[29] 3k[9] 3g[0] 4d[0] 4ü[0] 5d[3] 6k[3] 6g[0]
!! 7k[0] 7g[0] 8d[0] mehr[0] si[62] dm[-27] sr[47] sp[15]
!! 1F[6] 2F[72] 3F[8] 4F[0] LF[0] 2P[0] 3P[14] 4P[0] TRI[0] DF[4] AB[36]
!! TF[0] U3K[0] U3[6] U4[0] U4Ü[0] U5[11] U6K[0] U6[9] U7K[0] U7[20]
!! N1[29] N2K[0] N2[11] N3K[0] N3[11] N4[0] N4Ü[0] N5[3] N6K[0] N6[0]
!!!n7k: 0] N7[0] O1[0] O2K[0] O2[0] O3K[0] O3[0] HÖ[0
